X:111
T:St. Brides Bells. VWMLa.111
%%VWML:Anon2-3049-p63-0
F:http://www.vwml.org/record/Anon2/3049/p63
S:Anon. MS, late 18thC, Vaughan Williams Mem. Library
O:England;Yorkshire
Z:vmp/efdss.Simon Wilson. Reviewed PJH 2008.
M:2/4
L:1/8
Q:1/4=120
K:A
a|gfed|cBAa|gfed|c2Aa|\
gfed|cBAa|(g/a/b) B^d|e2E:|
|:a|fdBg|ecAa|fdBg|e2Aa|\
fdBg|ecAc|dfBg|a2A:|
T:New Coassac Dance. VWMLa.112
R:Country-dance
S:Anon. MS, late 18thC, Vaughan Williams Mem. Library
O:England;Yorkshire
Z:vmp/efdss.Simon Wilson. Reviewed PJH 2008.
M:2/4
L:1/16
Q:1/4=120
K:G
.G2(Bd) (cA)(cA)|[G2B2][G2B2] [F2A2]D2|\
(G2Bc) (cA)(cA)|[G2B2][G2B2] [D4A4]:|
|:g4 dcBA|GABG A2D2|g4 d2cB|AGAB G4:|
